X:566
T:Trip to Nenagh, The
R:reel
C:Sean Ryan (-1985)
Z:id:hn-reel-566
M:C|
K:Dmix
d2AG FD~D2 | A,DFA dcAG | Addc d=fed | c2Gc EcGc |
dcAG FD~D2 | A,DFA dcAG | Ad~d2 ADFA | GE^CE EDD2 :|
|: d2fd Adfd | geed ^cde^c | d2=cA FDDE | FGAB ~=c3B |
Ad~d2 Adfd | ^cdef gefg | a2ed ^cde^c | d=cAG FDD2 :|
P:variations
dcAG FADA | FDFA dcAG | Ad~d2 A=fed | c2Gc EcGc |
d2AG FADA | FDFA dcAG | Ad~d2 AdFA | GE^CE D2FA |
dcAG FADF | A,DFA dcAG | Ad~d2 d=fed | c2Gc EcGc |
dcAG FADB, | A,DFA dcAG | Ad~d2 ADFA | GE^CE D2FA ||
d2fd Adfa | gfed ^cAec | d2AG FADF | (3EFG AB ~=c2Bc |
Ad~d2 fd~d2 | ^cdef gefg | a2ed ^cAec | d=cAG FDD2 |
~d3f adfa | geed ^cAce | d2AG FDDF | (3EFG AB ~=c3B |
Adde fded | ^cdef gefg | a2ea ^caec | d=cAG FDD2 ||

